X:1275
T:Danza de Astureses
A:Galicia
M:4/4
O:Spain
Z:Richard Robinson 
%%TUNEURL: http://www.leeds.ac.uk/music/Info/RRTuneBk/gettune/000007cf.html
%%ID:000007cf
K:C
c2d2|\
e2 de fe dc|B2 G2 c2 d2|e2 de ^fd ef|g4::
A2G2|\
g3f ed cB|A2G2 A2A2|B3G AG AB|c4:|
